resources/svg/money.svg

<svg width="15" height="15" viewBox="0 0 15 15" fill="none" xmlns="http://www.w3.org/2000/svg">
<path d="M6 7.5C6 6.67157 6.67157 6 7.5 6C8.32843 6 9 6.67157 9 7.5C9 8.32843 8.32843 9 7.5 9C6.67157 9 6 8.32843 6 7.5Z" fill="black"/>
<path fill-rule="evenodd" clip-rule="evenodd" d="M0 3.5C0 2.67157 0.671573 2 1.5 2H13.5C14.3284 2 15 2.67157 15 3.5V11.5C15 12.3284 14.3284 13 13.5 13H1.5C0.671574 13 0 12.3284 0 11.5V3.5ZM4 4H2V6H3V5H4V4ZM12 5H11V4H13V6H12V5ZM7.5 5C6.11929 5 5 6.11929 5 7.5C5 8.88071 6.11929 10 7.5 10C8.88071 10 10 8.88071 10 7.5C10 6.11929 8.88071 5 7.5 5ZM11 10V11H13V9H12V10H11ZM2 9H3V10H4V11H2V9Z" fill="black"/>
</svg>

<svg viewBox="0 0 15 15" fill="none" xmlns="http://www.w3.org/2000/svg" fill="currentColor"><path d="M6 7.5a1.5 1.5 0 113 0 1.5 1.5 0 01-3 0z" fill="currentColor"/><path fill-rule="evenodd" clip-rule="evenodd" d="M0 3.5A1.5 1.5 0 011.5 2h12A1.5 1.5 0 0115 3.5v8a1.5 1.5 0 01-1.5 1.5h-12A1.5 1.5 0 010 11.5v-8zM4 4H2v2h1V5h1V4zm8 1h-1V4h2v2h-1V5zM7.5 5a2.5 2.5 0 100 5 2.5 2.5 0 000-5zm3.5 5v1h2V9h-1v1h-1zM2 9h1v1h1v1H2V9z" fill="currentColor"/></svg>
